assets/img/down-arrow-white.svg

<svg height="7" viewBox="0 0 10 7" width="10" xmlns="http://www.w3.org/2000/svg">
    <path d="M7.91769231,0.994615385 L4.61538462,4.29692308 L1.31307692,0.994615385 C1.01124701,0.7030983 0.531473248,0.707267405 0.234754942,1.00398571 C-0.0619633645,1.30070402 -0.0661324689,1.78047778 0.225384615,2.08230769 L4.07153846,5.92846154 C4.37192296,6.22875534 4.85884627,6.22875534 5.15923077,5.92846154 L9.00538462,2.08230769 C9.20535122,1.88917348 9.28554815,1.60317085 9.21515166,1.33422514 C9.14475517,1.06527942 8.93472058,0.855244834 8.66577486,0.784848341 C8.39682915,0.714451848 8.11082652,0.794648781 7.91769231,0.994615385 Z" fill="#000000"/>
</svg>

<svg height="7" viewBox="0 0 10 7" width="10" xmlns="http://www.w3.org/2000/svg">
    <path d="m7.91769231.99461539-3.30230769 3.30230769-3.3023077-3.30230769c-.30182991-.29151709-.78160367-.28734798-1.07832198.00937032-.2967183.29671831-.30088741.77649207-.00937032 1.07832198l3.84615384 3.84615385c.3003845.3002938.78730781.3002938 1.08769231 0l3.84615385-3.84615385c.1999666-.19313421.28016353-.47913684.20976704-.74808255-.07039649-.26894572-.28043108-.47898031-.5493768-.5493768-.26894571-.07039649-.55494834.00980044-.74808255.20976705z" fill="#000000"/>
</svg>
